X: 37
T: Praeludia organi op. 5 – Moderato
C: Franciszek Walczyński
%%abc-version 2.0
%%abcx-abcm2ps-target-version 5.9.1 (29 Sep 2008)
%%abc-creator hum2abc beta
%%abcx-conversion-date 2021/10/04 07:38:40
%%abc-edited-by Andrzej Borzym
%%abc-edited-by Katarzyna Serwa
%%abcx-initial-encoding-date 2021-07-26
%%humdrum-veritas 967916271
%%humdrum-veritas-data 297068263
%%linebreak <none>
%%barnumbers 0
L: 1/4
M: C
N: Derived from pl-kozmzk--mzk-m-159--026_walczynski-franciszek--praeludia-organi-op-5-moderato.krn
Q: "26. Moderato."
%%staves {1 2}
V: 1 clef=treble
V: 2 clef=bass
K: B
[V:1] B2AG & D2E^E | 
[V:2] G,3A, & G,,2C,^^C, | 
[V:1] ^^F2GA & D4- | 
[V:2] A,2G,^^F, & D,C,B,,A,, | 
[V:1] B2cB & D2E^E | 
[V:2] G,4- & G,,2C,^^C, | 
[V:1] A4 & D4 | 
[V:2] G,^^F,^E,F, & D,4 | 
[V:1] d3c & z^^FGA | 
[V:2] D4- & zD,^E,^^F, | 
[V:1] B^Bcg & G4 | 
[V:2] D2C2 & G,F,E,2 | 
[V:1] f3e- & cF3- | 
[V:2] A,B,^B,C & F,G,^^G,A, | 
[V:1] ed^^cd- & F4 | 
[V:2] B,4 & B,4 | 
[V:1] dc2B & A2G2- | 
[V:2] E2D^^C & ^^F,2G,^E, | 
[V:1] A4 & G^^F^EF | 
[V:2] D4 & D,4 | 
[V:1] B2AG & D2=E^E | 
[V:2] G,3A, & G,B,,C,^^C, | 
[V:1] ^^F2Gc- & D3=E | 
[V:2] A,2G,2 & D,C,B,,C, | 
[V:1] cB2A & D2C2 | 
[V:2] G,2^^F,2 & D,4 | 
[V:1] !fermata!G4 & B,CB,2 |]  
[V:2] G,E,D,2 & !fermata!G,,4 |]  


